pk/slippers-one.svg

<svg viewBox="0 0 48 48" fill="none" xmlns="http://www.w3.org/2000/svg" height="1em" width="1em">
  <path d="M4 29H44V35H4V29Z" stroke="black" stroke-width="4" stroke-linecap="round" stroke-linejoin="round"/>
  <path d="M7.00044 22C4 26 4 29 4 29H30.0007C30.0007 29 30.0003 23.5 30.0003 21C30.0003 18.5 28.5001 15.5 25.0001 15C21.5001 14.5 11.8762 15.5 7.00044 22Z" fill="#2F88FF" stroke="black" stroke-width="4" stroke-linecap="round" stroke-linejoin="round"/>
</svg>

<svg viewBox="0 0 48 48" fill="none" xmlns="http://www.w3.org/2000/svg" height="1em" width="1em">
  <path d="M4 29h40v6H4v-6Z" stroke="#000" stroke-width="4" stroke-linecap="round" stroke-linejoin="round"/>
  <path d="M7 22c-3 4-3 7-3 7h26v-8c0-2.5-1.5-5.5-5-6s-13.124.5-18 7Z" fill="#2F88FF" stroke="#000" stroke-width="4" stroke-linecap="round" stroke-linejoin="round"/>
</svg>
